icons/svg/paper-cut-vertical.svg

﻿<?xml version="1.0" encoding="utf-8"?>
<!DOCTYPE svg PUBLIC "-//W3C//DTD SVG 1.1//EN" "http://www.w3.org/Graphics/SVG/1.1/DTD/svg11.dtd">
<svg xmlns="http://www.w3.org/2000/svg" xmlns:xlink="http://www.w3.org/1999/xlink" version="1.1" baseProfile="full" width="24" height="24" viewBox="0 0 24.00 24.00" enable-background="new 0 0 24.00 24.00" xml:space="preserve">
	<path fill="#000000" fill-opacity="1" stroke-linejoin="round" d="M 11.4339,3.2344L 12,4.01352L 12.5661,3.2344L 12.5715,3.23833C 13.1168,2.4879 14.0014,2 15,2C 16.6569,2 18,3.34315 18,5C 18,5.35064 17.9398,5.68722 17.8293,6L 20,6C 21.1046,6 22,6.89543 22,8L 22,20C 22,21.1046 21.1046,22 20,22L 4,22C 2.89543,22 2,21.1046 2,20L 2,8C 2,6.89543 2.89543,6 4,6L 6.17071,6C 6.06015,5.68722 6,5.35064 6,5C 6,3.34315 7.34315,2 9,2C 9.99859,2 10.8832,2.4879 11.4285,3.23833L 11.4339,3.2344 Z M 4,8.00002L 4,20L 11,20C 11,19.4477 11.4477,19 12,19C 12.5523,19 13,19.4477 13,20L 20,20L 20,8.00002L 15,8.00001L 14.8963,8.00002L 17.0179,10.9201L 15.3998,12.0956L 12.4242,8.00002L 11.5758,8.00002L 8.60013,12.0956L 6.98209,10.9201L 9.10364,8.00002L 8.99999,8.00001L 4,8.00002 Z M 9,4.00001C 8.44771,4.00001 8,4.44773 8,5.00001C 8,5.55229 8.44771,6.00001 9,6.00001C 9.55228,6.00001 10,5.55229 10,5.00001C 10,4.44773 9.55228,4.00001 9,4.00001 Z M 15,4.00001C 14.4477,4.00001 14,4.44773 14,5.00001C 14,5.55229 14.4477,6.00001 15,6.00001C 15.5523,6.00001 16,5.55229 16,5.00001C 16,4.44773 15.5523,4.00001 15,4.00001 Z M 12,16C 12.5523,16 13,16.4477 13,17C 13,17.5523 12.5523,18 12,18C 11.4477,18 11,17.5523 11,17C 11,16.4477 11.4477,16 12,16 Z M 12,13C 12.5523,13 13,13.4477 13,14C 13,14.5523 12.5523,15 12,15C 11.4477,15 11,14.5523 11,14C 11,13.4477 11.4477,13 12,13 Z M 12,10C 12.5523,10 13,10.4477 13,11C 13,11.5523 12.5523,12 12,12C 11.4477,12 11,11.5523 11,11C 11,10.4477 11.4477,10 12,10 Z "/>
</svg>

<svg xmlns="http://www.w3.org/2000/svg" version="1.1" baseProfile="full" width="24" height="24" viewBox="0 0 24.00 24.00" xml:space="preserve"><path fill="#000" fill-opacity="1" stroke-linejoin="round" d="M11.434 3.234l.566.78.566-.78.005.004C13.12 2.488 14.002 2 15.002 2c1.657 0 3 1.343 3 3 0 .35-.06.687-.17 1H20c1.105 0 2 .895 2 2v12c0 1.105-.895 2-2 2H4c-1.105 0-2-.895-2-2V8c0-1.105.895-2 2-2h2.17C6.06 5.687 6 5.35 6 5c0-1.657 1.343-3 3-3 1 0 1.883.488 2.428 1.238l.006-.004zM4 8v12h7c0-.552.448-1 1-1s1 .448 1 1h7V8h-5.104l2.122 2.92-1.618 1.176L12.424 8h-.848L8.6 12.096 6.982 10.92 9.104 8H4zm5-4c-.552 0-1 .448-1 1s.448 1 1 1 1-.448 1-1-.448-1-1-1zm6 0c-.552 0-1 .448-1 1s.448 1 1 1 1-.448 1-1-.448-1-1-1zm-3 12c.552 0 1 .448 1 1s-.448 1-1 1-1-.448-1-1 .448-1 1-1zm0-3c.552 0 1 .448 1 1s-.448 1-1 1-1-.448-1-1 .448-1 1-1zm0-3c.552 0 1 .448 1 1s-.448 1-1 1-1-.448-1-1 .448-1 1-1z"/></svg>
